images/Traffic_Sign_GR_-_KOK_2009_-_P-37.svg

<svg width="460" height="655" fill="none" xmlns="http://www.w3.org/2000/svg"><path d="M460 0H0v655h460V0z" fill="#0C479D"/><path d="M53 505V150h355v355H53z" fill="#fff"/><path fill-rule="evenodd" clip-rule="evenodd" d="M130.885 451.291c-4.744 11.159-2.594 23.779 8.874 28.659 5.322 2.289 11.74.717 16.275-2.935l3.247-2.59 71.838-125.793 71.806 126.782c7.708 6.209 16.893 9.963 25.251 2.286 5.667-5.22 6.383-12.316 4.54-19.789l-1.232-5.083-89.279-122.039c7.165-13.173 14.541-33.74 31.295-33.402 20.134.373 33.135-34.836 39.86-46.709l20.24-35.822 4.4-8.803-.575-7.745-7.306 1.058c-13.24 21.121-26.314 46.195-41.738 65.372-2.493 3.138-8.26 8.594-5.562.171l1.095-3.516 39.829-61.545c1.369-3.891 3.174-11.229-2.766-11.364-2.216-.027-.958-.304-3.483 1.742l-2.15 1.74c-9.009 13.648-31.499 51.997-42.249 63.558-1.703 1.845-2.765 1.674-5.084 1.98.205-13.405 17.202-29.235 22.694-37.835l21.536-33.707c-.302-4.471-.165-9.419-5.463-7.814-2.969.888-1.397.041-4.298 3.172l-2.454 2.63-50.548 68.436c-3.14 8.533-5.937 17.059-3.342 26.375 3.992 14.124-8.222 26.713-14.982 36.573-6.825-9.141-18.531-19.922-18.327-32.785.137-7.201-.479-3.278 2.56-11.534 3.683-9.927 4.061-19.345 1.26-29.647-4.262-15.796-16.003-29.343-26.755-40.293-12.153-12.319-27.676-25.962-44.54-27.873-7.098-.786-11.396.61-16.581 6.207-8.194 8.803-5.701 20.371-4.236 31.968 2.867 22.483 9.253 41.422 20.613 60.357 6.317 10.543 11.164 16.683 21.739 21.185 8.975 3.855 3.754 2.525 15.941 2.39 11.329-.109 6.997-1.504 13.546 1.465 8.16 3.685 13.279 14.399 17.713 22.28l5.938 10.438" fill="#000"/></svg>

<svg width="460" height="655" viewBox="0 0 460 655" fill="none" xmlns="http://www.w3.org/2000/svg">
<path d="M460 0H0V655H460V0Z" fill="#0C479D"/>
<path d="M53 505V150H408V505H53Z" fill="white"/>
<path fill-rule="evenodd" clip-rule="evenodd" d="M130.885 451.291C126.141 462.45 128.291 475.07 139.759 479.95C145.081 482.239 151.499 480.667 156.034 477.015L159.281 474.425L231.119 348.632L302.925 475.414C310.633 481.623 319.818 485.377 328.176 477.7C333.843 472.48 334.559 465.384 332.716 457.911L331.484 452.828L242.205 330.789C249.37 317.616 256.746 297.049 273.5 297.387C293.634 297.76 306.635 262.551 313.36 250.678L333.6 214.856L338 206.053L337.425 198.308L330.119 199.366C316.879 220.487 303.805 245.561 288.381 264.738C285.888 267.876 280.121 273.332 282.819 264.909L283.914 261.393L323.743 199.848C325.112 195.957 326.917 188.619 320.977 188.484C318.761 188.457 320.019 188.18 317.494 190.226L315.344 191.966C306.335 205.614 283.845 243.963 273.095 255.524C271.392 257.369 270.33 257.198 268.011 257.504C268.216 244.099 285.213 228.269 290.705 219.669L312.241 185.962C311.939 181.491 312.076 176.543 306.778 178.148C303.809 179.036 305.381 178.189 302.48 181.32L300.026 183.95L249.478 252.386C246.338 260.919 243.541 269.445 246.136 278.761C250.128 292.885 237.914 305.474 231.154 315.334C224.329 306.193 212.623 295.412 212.827 282.549C212.964 275.348 212.348 279.271 215.387 271.015C219.07 261.088 219.448 251.67 216.647 241.368C212.385 225.572 200.644 212.025 189.892 201.075C177.739 188.756 162.216 175.113 145.352 173.202C138.254 172.416 133.956 173.812 128.771 179.409C120.577 188.212 123.07 199.78 124.535 211.377C127.402 233.86 133.788 252.799 145.148 271.734C151.465 282.277 156.312 288.417 166.887 292.919C175.862 296.774 170.641 295.444 182.828 295.309C194.157 295.2 189.825 293.805 196.374 296.774C204.534 300.459 209.653 311.173 214.087 319.054L220.025 329.492" fill="black"/>
</svg>
